X:1
T:Prelude and Fugue in C minor
T:Prelude and Fugue in C minor
T:from The Well-Tempered Clavier, Book 1
T:J.S. BACH arr. Eric Szanto 
T:This work, including the composition and arrangement, is in the Public Domain.
T:This work, including the composition and arrangement, is in the Public Domain.
T:This work, including the composition and arrangement, is in the Public Domain.
T:This work, including the composition and arrangement, is in the Public Domain.
T:This work, including the composition and arrangement, is in the Public Domain.
T:This work, including the composition and arrangement, is in the Public Domain.
T:This work, including the composition and arrangement, is in the Public Domain.
C:J.S. BACH
Z:This work, including the composition and arrangement, is in the Public Domain.
%%score [ 1 2 ]
L:1/8
Q:1/4=100
M:4/4
K:Eb
V:1 alto nm="Viola I" snm="Vla. I"
V:2 alto nm="Viola II" snm="Vla. II"
V:1
"^PRELUDE" c/E/D/E/ C/E/D/E/ c/E/D/E/ C/E/D/E/ | A/F/=E/F/ C/F/E/F/ A/F/E/F/ C/F/E/F/ | %2
 =B/F/_E/F/ D/F/E/F/ B/F/E/F/ D/F/E/F/ | c/G/F/G/ E/G/F/G/ c/G/F/G/ E/G/F/G/ | %4
 e/A/G/A/ E/A/G/A/ e/A/G/A/ E/A/G/A/ | d/^F/=E/F/ D/F/E/F/ d/F/E/F/ D/F/E/F/ | %6
 d/G/^F/G/ D/G/F/G/ d/G/F/G/ D/G/F/G/ | c/=E/D/E/ C/E/D/E/ c/E/D/E/ C/E/D/E/ | %8
 c/F/=E/F/ C/F/E/F/ c/F/E/F/ C/F/E/F/ | B/F/_E/F/ D/F/E/F/ B/F/E/F/ D/F/E/F/ | %10
 B/G/F/G/ E/G/F/G/ B/G/F/G/ E/G/F/G/ | A/G/F/G/ E/G/F/G/ A/G/F/G/ E/G/F/G/ | %12
 A/D/C/D/ B,/D/C/D/ A/D/C/D/ B,/D/C/D/ | G/B,/A,/B,/ E/B,/A,/B,/ G/B,/A,/B,/ E/B,/A,/B,/ | %14
 F/C/B,/C/ =A,/C/B,/C/ F/C/B,/C/ A,/C/B,/C/ | F/D/C/D/ =B,/D/C/D/ F/D/C/D/ B,/D/C/D/ | %16
 F/D/C/D/ =B,/D/C/D/ F/D/C/D/ B,/D/C/D/ | E/C/=B,/C/ G,/C/B,/C/ E/C/B,/C/ G,/C/B,/C/ | %18
 F,/E/D/E/ F/E/D/E/ F,/E/D/E/ F/E/D/E/ | ^F,/C/=B,/C/ E/C/B,/C/ F,/C/B,/C/ E/C/B,/C/ | %20
"^20a*""_*Note: measures 20a until 21 are not authentic and may be omitted" G/A/G/d/ G/A/G/d/ G/A/G/A/ e/d/c/A/ | %21
 G/(G,/C/)G,/ A/(G,/C/)G,/ =B/(G,/C/)G,/ A/(G,/C/)G,/ | %22
 F/G,/D/G,/ D/G,/D/G,/ E/G,/D/G,/ G/G,/=B/d/ | %23
 c/(G,/C/)G,/ A/(G,/C/)G,/ =B/(G,/C/)G,/ A/(G,/C/)G,/ | %24
 F/G,/D/G,/"_molto cresc."!p! D/!<(!G,/D/G,/ E/G,/D/G,/ G/F/A/=B/!<)! | %25
 E/C/=B,/C/ G,/C/B,/C/ E/C/B,/C/ G,/C/B,/C/ | ^F/C/=B,/C/ =A,/C/B,/C/ F/C/B,/C/ A,/C/B,/C/ | %27
 G/C/=B,/C/ D/C/B,/C/ G/C/B,/C/ D/C/B,/C/ | A/C/=B,/C/ D/C/B,/C/ A/C/B,/C/ D/C/B,/C/ | %29
 G/=B/d/f/ a/f/=e/f/ d/B/d/B/ A/F/=E/F/ | z2 C/G,/^F,/G,/ z2 C/A,/G,/A,/ | %31
 z2 E/C/=B,/C/ z2 E/C/B,/C/ | %32
[K:treble][Q:1/4=135]"^Presto" z/ d/c/d/ e/c/=B/c/ =A/c/B/c/ d/B/A/B/ | %33
 G/=B/A/B/ c/=A/G/A/ ^F/A/G/A/ B/G/F/G/ | D/g/f/g/ a/f/e/f/ d/f/e/f/ g/e/d/e/ | %35
 c/e/d/e/ f/d/c/d/ =B/d/A/d/ e/c/B/c/ | G/c/=B/c/ A/f/e/f/ G/f/e/f/ F/f/e/f/ | %37
 E/c/=B/c/ A/F/E/F/ G/E/D/E/ F/D/C/D/ | %38
[K:alto][Q:1/4=40]"^Adagio" !fermata![=Ec]E/4C/4D/4E/4F/8G/8A/8B/8c/8B/8A/8G/8F/G/4E/4 [CA] z z2 | %39
[Q:1/4=100]"^a tempo" =B,>D F/A/G/F/ =B/F/d/F/ B/A/G/F/ | =E/_d/B/G/ c/A/F/A/ G/B/G/E/ A/F/D/F/ | %41
"^molto rall." E/G/E/C/[Q:1/4=98] F/D/=B,/D/[Q:1/4=95] C/G/c/d/[Q:1/4=92] E/G/=B/G/ | %42
[Q:1/4=85] A/c/f/d/[Q:1/4=82] F/A/c/[Q:1/4=80]=B/[Q:1/4=75] c/[Q:1/4=60]G/[Q:1/4=50]F/D/ !fermata!=E2 |] %43
"^FUGUE"[Q:1/4=80] z c/=B/ cG Ac/B/ cd | Gc/=B/ cd F/G/ A2 G/F/ | E/c/=B/=A/ G/F/E/D/ Cedc | %46
 B=ABc ^FGAF | G2 z/ C/D/E/ F/G/A- A/D/E/F/ | G/=A/B- B/E/F/G/ _A/G/F/E/ Dc/=B/ | %49
 AC/=B,/ CG, A,C/B,/ CD | G,C/=B,/ CD F,/G,/ A,2 G,/F,/ | %51
 E,/C/=B,/=A,/ G,/F,/E,/D,/ C,/D,/E,/D,/ C,/_B,/_A,/G,/ | %52
 F,/B/A/G/ F/E/D/C/ B,/C/D/C/ B,/A,/G,/F,/ | E,/A/G/F/ E/_D/C/B,/ A,cBA | GEGA DA,/G,/ A,F, | %55
 E,/B,/A,/C/ G,/B,/F,/A,/ G,/B,/E,/G,/ D,/F,/C,/F,/ | %56
 D,/F,/B,/_D/ F,/A,/G,/B,/ A,/C/F/A/ E/G/=D/F/ | GG/^F/ GC EG/F/ G=A | DG/^F/ G=A c/d/ e2 d/c/ | %59
 B z z/ D/=E/^F/ G/=A/B- B/E/=F/G/ | =A/B/c- c/^F/G/A/ BE/D/ EG, | A,=A/G/ A=A, B,=B/A/ B=B, | %62
 z c/=B/ cG Ac/B/ cd | Gc/=B/ cd F/G/ A2 G/F/ | Ec/=B/ cG FF/=E/ F=A | BB/=A/ BF GE/D/ EG | %66
 GA/B/ c/=B/c/A/ CD/E/ F/E/F/D/ | Gd/c/ dF Ee/d/ eG | Ff/e/ fA G/f/e/d/ c/=B/A/G/ | cfed EAGF | %70
 GF/E/ ED AG z =A | =Bc F/E/D/C/ Cc/B/ cG | Ac/=B/ cd Gc/B/ cd | %73
 F/G/[Q:1/4=75] A2[Q:1/4=60] G/[Q:1/4=55]F/ =E4[Q:1/4=70][Q:1/4=65] |] %74
V:2
 C,/G,/F,/G,/ E,/G,/F,/G,/ C,/G,/F,/G,/ E,/G,/F,/G,/ | %1
 C,/A,/G,/A,/ F,/A,/G,/A,/ C,/A,/G,/A,/ F,/A,/G,/A,/ | %2
 C,/A,/G,/A,/ F,/A,/G,/A,/ C,/A,/G,/A,/ F,/A,/G,/A,/ | %3
 C,/E,/D,/E,/ G,/E,/D,/E,/ C,/E,/D,/E,/ G,/E,/D,/E,/ | %4
 C,/C/B,/C/ A,/C/B,/C/ C,/C/B,/C/ A,/C/B,/C/ | %5
 C,/=A,/G,/A,/ ^F,/A,/G,/A,/ C,/A,/G,/A,/ F,/A,/G,/A,/ | B,/B/=A/B/ G/B/A/B/ B,/B/A/B/ G/B/A/B/ | %7
 B,/G/F/G/ =E/G/F/G/ B,/G/F/G/ E/G/F/G/ | A,/A/G/A/ F/A/G/A/ A,/A/G/A/ F/A/G/A/ | %9
 A,/D/C/D/ F/D/C/D/ A,/D/C/D/ F/D/C/D/ | G,/E/D/E/ G/E/D/E/ G,/E/D/E/ G/E/D/E/ | %11
 C,/E,/D,/E,/ A,/E,/D,/E,/ C,/E,/D,/E,/ A,/E,/D,/E,/ | %12
 D,/F,/E,/F,/ A,/F,/E,/F,/ D,/F,/E,/F,/ A,/F,/E,/F,/ | %13
 E,/G,/F,/G,/ A,/G,/F,/G,/ E,/G,/F,/G,/ A,/G,/F,/G,/ | %14
 E,/=A,/G,/A,/ F,/A,/G,/A,/ E,/A,/G,/A,/ F,/A,/G,/A,/ | %15
 C,/F,/E,/F,/ _A,/F,/E,/F,/ D,/F,/E,/F,/ A,/F,/E,/F,/ | %16
 C,/F,/=E,/F,/ A,/F,/E,/F,/ C,/F,/E,/F,/ A,/F,/E,/F,/ | %17
 C,/_E,/D,/E,/ F,/E,/D,/E,/ C,/E,/D,/E,/ F,/E,/D,/E,/ | %18
 A,/C/=B,/C/ D/C/B,/C/ A,/C/B,/C/ D/C/B,/C/ | =A,/E/D/E/ C/E,/D/E/ A,/E/D/E/ C/E,/D/E/ | %20
 G,/A,/G,/D/ G,/A,/G,/D/ D/E/D/E/ G/F/E/D/ | %21
 C/(E,/C,/E,/) D/(E,/C,/E,/) E/(E,/C,/E,/) D/(E,/C,/E,/) | %22
 F,/G,/=B,/D/ F,/G,/B,/D/ C/G,/F,/E,/ F,/E,/G,/D/ | %23
 C/(E,/C,/E,/) D/(E,/C,/E,/) E/(E,/C,/E,/) D/(E,/C,/E,/) | %24
 F,/G,/=B,/D/ F,/G,/B,/D/ C/G,/F,/E,/ C,/D,/E,/F,/ | G,/E/D/E/ F/E/D/E/ G,/E/D/E/ F/E/D/E/ | %26
 G,/E/D/E/ C/E/D/E/ G,/E/D/E/ C/E/D/E/ | G,/E/D/E/ F/E/D/E/ G,/E/D/E/ F/E/D/E/ | %28
 G,/E/D/E/ F/E/C/E/ G,/E/D/E/ F/E/D/E/ | G,/=B,/D/F/ E/D/B,/D/ =B/F/d/B/ d/A/G/B,/ | %30
 G,/C/E/G/ z2 E/C/G/E/ z2 | G,/=A,/^F/c/ z2 G/C/B/F/ z2 | G,8- | %33
 G,/D/C/D/ E/C/=B,/C/ =A,/C/B,/C/ D/B,/A,/B,/ | %34
 G,/=B,/=A,/B,/ C/_A,/G,/A,/ F,/A,/G,/A,/ B,/G,/F,/G,/ | E,/G/F/G/ A/F/E/F/ D/F/E/F/ G/E/D/E/ | %36
 C/E/D/E/ F/D/C/D/ E/C/=B,/C/ D/B,/A,/B,/ | C/E/D/E/ F,/D/C/D/ E,/C/=B,/C/ D,/B,/=A,/B,/ | %38
 !fermata![C,G,] z z2 [C,A,F]F/4G/4F/4=E/4 F/4G/4A/4G/4F/8_E/8D/8E/8F/8D/8E/8F/8 | %39
 C,>=A, F,/_A,/G,/F,/ =B,/F,/D/F,/ B,/A,/G,/F,/ | %40
 =E,/_D/B,/G,/ C/A,/F,/A,/ G,/B,/G,/E,/ A,/F,/D,/F,/ | %41
 E,/G,/E,/C,/ F,/D,/=B,/D/ C,/G,/C/D/ E,/G,/B,/G,/ | %42
 A,/C/F/D/ F,/A,/C/=B,/ C/G,/F,/D,/ !fermata!C,2 |] x8 | x8 |[K:treble] z g/^f/ gc eg/f/ g=a | %46
 dg/^f/ ga c/d/ e2 d/c/ | Be/d/ eG Af/e/ f=A | Bg/f/ g=B cd/e/ f2- | fe/d/ c/B/A/G/ FAGF | %50
 eAGF GF/E/ FD |[K:alto] CG/^F/ GD EC/=B,/ C=E | FF/=E/ FC DB,/=A,/ B,F, | EE/D/ EB, CE/D/ EF | %54
 BE/D/ EF A/B/ c2 B/A/ | G/E/F/G/[K:treble] A/B/c/d/ e/d/c/d/ e/f/g/a/ | %56
 b/F/G/A/ B/c/d/=e/ f/_e/d/e/ f/g/=a/=b/ |[K:alto] c=B/=A/ G/F/E/D/ CEDC | B,=A,B,C ^F,G,A,F, | %59
 G,D,/C,/ G,D, E,C/B,/ CE, | E,D/C/ D^F, G,2 z/ G,/=A,/B,/ | C/D/E- E/=A,/B,/C/ D/E/F- F/=B,/C/D/ | %62
 C/F/E/D/ C/B,/A,/G,/ FF,E,D, | E,D,E,F, =B,C,D,B, | C/D/E/D/ C/B,/A,/G,/ F,/B/A/G/ F/E/D/C/ | %65
 B,/C/D/C/ B,/A,/G,/F,/ E,/A/G/F/ E/D/C/B,/ | A,/B,/C/B,/ A,/G,/F,/E,/ D,/G/F/E/ D/C/=B,/=A,/ | %67
 F,2 z B, C,/G,/=A,/=B,/ C/D/E/F/ | G/F/A/G/ F/E/D/C/ =B,C/B,/ CG, | A,C/=B,/ CD G,C/B,/ CD | %70
 F,/G,/ A,2 G,/F,/ E,2 G,C | DC D/C/G,/A,/ G,C/=B,/ C=E, | F,2 z G, F,E,/D,/ E,A, | %73
 D/C/=B,/A,/ D,G,/F,/ G,4 |] %74

